icons/lines/dollar-circle.svg

<svg xmlns="http://www.w3.org/2000/svg" width="24" height="24" viewBox="0 0 24 24" fill="none" stroke="currentColor" stroke-width="2" stroke-linecap="round" stroke-linejoin="round" >
  <path d="M8.67188 14.3298C8.67188 15.6198 9.66188 16.6598 10.8919 16.6598H13.4019C14.4719 16.6598 15.3419 15.7498 15.3419 14.6298C15.3419 13.4098 14.8119 12.9798 14.0219 12.6998L9.99187 11.2998C9.20187 11.0198 8.67188 10.5898 8.67188 9.36984C8.67188 8.24984 9.54187 7.33984 10.6119 7.33984H13.1219C14.3519 7.33984 15.3419 8.37984 15.3419 9.66984"/>
  <path d="M12 6V18"/>
  <path d="M12 22C17.5228 22 22 17.5228 22 12C22 6.47715 17.5228 2 12 2C6.47715 2 2 6.47715 2 12C2 17.5228 6.47715 22 12 22Z"/>
  </svg>

<svg xmlns="http://www.w3.org/2000/svg" width="24" height="24" viewBox="0 0 24 24" fill="none" stroke="currentColor" stroke-width="2" stroke-linecap="round" stroke-linejoin="round">
  <path d="M12 6v12" />
  <path d="M8.672 14.33c0 1.29.99 2.33 2.22 2.33h2.51c1.07 0 1.94-.91 1.94-2.03 0-1.22-.53-1.65-1.32-1.93l-4.03-1.4c-.79-.28-1.32-.71-1.32-1.93 0-1.12.87-2.03 1.94-2.03h2.51c1.23 0 2.22 1.04 2.22 2.33" />
  <circle cx="12" cy="12" r="10" />
</svg>
